symbolic/64x64/apps/jdeveloper.svg

<svg xmlns="http://www.w3.org/2000/svg" width="64" height="64" version="1">
 <path style="fill:#e4e4e4" d="m 54.512195,32.228659 c 0,15.463973 -5.066515,26.551829 -20.530488,26.551829 C 24.247786,58.780488 14,53 8.6748226,47.495304 6.9767682,44.944314 5.6860444,42.098887 4.895536,39.051908 4.3110283,36.798949 5,34.435797 5,32 5,16.536027 16.993344,7.8109756 32.457317,7.8109756 c 15.463973,0 22.054878,8.9537104 22.054878,24.4176834 z"/>
 <path style="fill:#6298df" d="M 31.099609 19.099609 C 18.341832 19.099609 8 29.441442 8 42.199219 C 8.00797 43.939059 8.2245449 45.671027 8.6210938 47.363281 C 8.6222212 47.371121 8.6257518 47.382656 8.6269531 47.390625 A 28 28 0 0 0 22.576172 58.330078 C 22.930624 58.335449 23.29856 58.373359 23.703125 58.496094 C 25.963807 58.456075 28.255566 58.305227 30.400391 58.300781 C 29.285766 54.864726 24.902534 48.871972 24.800781 42.900391 C 26.425485 32.822996 31.713261 24.218735 40.820312 21.273438 C 37.77672 19.850538 34.459372 19.108682 31.099609 19.099609 z"/>
 <path style="fill:#999999" d="M 33.935,27.657813 C 28.518121,31.60381 24.510101,37.898257 24.5,44.6 24.506613,50.035524 23,58 31.748623,59.134672 32.151536,59.186929 33.706728,58.728052 34,59 39.018408,58.803802 42.296568,58.253193 46.290234,55.769922 37.262462,55.442044 30.110221,48.03372 30.1,39 c 0.0078,-4.20237 0.990071,-8.249233 3.835,-11.342187 z"/>
 <path style="fill:#3a62bf" d="M 36.099609 21 C 23.341832 21 13 31.341832 13 44.099609 C 13.008603 47.777622 13.899931 51.390748 15.582031 54.646484 A 28 28 0 0 0 30.492188 59.923828 C 30.264576 59.293782 29.947088 58.589958 29.574219 57.824219 C 26.625331 54.122462 25.013719 49.533515 25 44.800781 C 25.0097 38.850936 29.207637 31.832505 33.634766 27.857422 C 38.431199 23.418739 44.388672 22.564453 44.388672 22.564453 C 41.745435 21.538903 38.934813 21.008323 36.099609 21 z"/>
 <path style="opacity:0.2" d="M 32,5 A 28,28 0 0 0 4,33 28,28 0 0 0 5.0722656,40.650391 21,21 0 0 1 5,39 21,21 0 0 1 26,18 21,21 0 0 1 47,39 21,21 0 0 1 26,60 21,21 0 0 1 24.386719,59.917969 28,28 0 0 0 32,61 28,28 0 0 0 60,33 28,28 0 0 0 32,5 Z"/>
 <path style="fill:#e63b40" d="M 32 4 A 28 28 0 0 0 4 32 A 28 28 0 0 0 5.0722656 39.650391 A 21 21 0 0 1 5 38 A 21 21 0 0 1 26 17 A 21 21 0 0 1 47 38 A 21 21 0 0 1 26 59 A 21 21 0 0 1 24.386719 58.917969 A 28 28 0 0 0 32 60 A 28 28 0 0 0 60 32 A 28 28 0 0 0 32 4 z"/>
 <path style="opacity:0.2;fill:#ffffff" d="M 32 4 A 28 28 0 0 0 4 32 A 28 28 0 0 0 4.0214844 32.410156 A 28 28 0 0 1 32 5 A 28 28 0 0 1 59.978516 32.585938 A 28 28 0 0 0 60 32 A 28 28 0 0 0 32 4 z M 46.978516 38.414062 A 21 21 0 0 1 26 59 A 21 21 0 0 1 24.386719 58.917969 A 28 28 0 0 0 28.869141 59.779297 A 21 21 0 0 0 47 39 A 21 21 0 0 0 46.978516 38.414062 z M 5.0234375 38.535156 A 21 21 0 0 0 5 39 A 21 21 0 0 0 5.0195312 39.431641 A 28 28 0 0 0 5.0722656 39.650391 A 21 21 0 0 1 5.0234375 38.535156 z"/>
</svg>

<svg xmlns="http://www.w3.org/2000/svg" width="64" height="64" version="1"><path style="fill:#e4e4e4" d="M54.512 32.229c0 15.464-5.066 26.551-20.53 26.551C24.248 58.78 14 53 8.675 47.495a27.86 27.86 0 0 1-3.78-8.443C4.312 36.799 5 34.436 5 32 5 16.536 16.993 7.811 32.457 7.811s22.055 8.954 22.055 24.418z"/><path style="fill:#6298df" d="M31.1 19.1C18.342 19.1 8 29.44 8 42.2c.008 1.74.225 3.471.621 5.163l.006.028a28 28 0 0 0 13.95 10.94c.354.004.722.042 1.126.165 2.26-.04 4.553-.19 6.697-.195-1.114-3.436-5.497-9.429-5.6-15.4 1.625-10.078 6.913-18.682 16.02-21.628A23.1 23.1 0 0 0 31.1 19.1z"/><path style="fill:#999" d="M33.935 27.658C28.518 31.604 24.51 37.898 24.5 44.6c.007 5.436-1.5 13.4 7.249 14.535.403.052 1.958-.407 2.251-.135 5.018-.196 8.297-.747 12.29-3.23-9.028-.328-16.18-7.736-16.19-16.77.008-4.202.99-8.25 3.835-11.342z"/><path style="fill:#3a62bf" d="M36.1 21C23.342 21 13 31.342 13 44.1c.009 3.678.9 7.29 2.582 10.546a28 28 0 0 0 14.91 5.278c-.227-.63-.545-1.334-.918-2.1A20.999 20.999 0 0 1 25 44.801c.01-5.95 4.208-12.968 8.635-16.944 4.796-4.438 10.754-5.293 10.754-5.293A23.107 23.107 0 0 0 36.099 21z"/><path style="opacity:.2" d="M32 5A28 28 0 0 0 4 33a28 28 0 0 0 1.072 7.65A21 21 0 0 1 5 39a21 21 0 0 1 21-21 21 21 0 0 1 21 21 21 21 0 0 1-21 21 21 21 0 0 1-1.613-.082A28 28 0 0 0 32 61a28 28 0 0 0 28-28A28 28 0 0 0 32 5z"/><path style="fill:#e63b40" d="M32 4A28 28 0 0 0 4 32a28 28 0 0 0 1.072 7.65A21 21 0 0 1 5 38a21 21 0 0 1 21-21 21 21 0 0 1 21 21 21 21 0 0 1-21 21 21 21 0 0 1-1.613-.082A28 28 0 0 0 32 60a28 28 0 0 0 28-28A28 28 0 0 0 32 4z"/><path style="opacity:.2;fill:#fff" d="M32 4A28 28 0 0 0 4 32a28 28 0 0 0 .021.41A28 28 0 0 1 32 5a28 28 0 0 1 27.979 27.586A28 28 0 0 0 60 32 28 28 0 0 0 32 4zm14.979 34.414A21 21 0 0 1 26 59a21 21 0 0 1-1.613-.082 28 28 0 0 0 4.482.861A21 21 0 0 0 47 39a21 21 0 0 0-.021-.586zm-41.956.121A21 21 0 0 0 5 39a21 21 0 0 0 .02.432 28 28 0 0 0 .052.218 21 21 0 0 1-.049-1.115z"/></svg>
